X: 41177
T: Tripping Up The Stairs
R: jig
M: 6/8
K: Dmajor
g|fAd cAd|BGd AAG|F.A.A def|g3 eag|
f2d cAd|BGd AAG|F.A.A def|gec d2e|
f2d cAA|BGG AAG|FAA def|g3 eag|
fdd cAd|BGd AAG|F2A def|gec d2A||
FAA BAA|FAD DAG|FAA def|g3 eag|
f2d cAd|BGd AAG|FAA def|gec d2A|
DAA BAG|FAD D3|DAA def|g3 eag|
f2d cAd|BGd AAG|FAA def|gec d2||

